apes/app/img/arrow-sm-w.svg

<svg width="75" height="151" viewBox="0 0 75 151" fill="none" xmlns="http://www.w3.org/2000/svg">
<path fill-rule="evenodd" clip-rule="evenodd" d="M22.777 1.55679C24.777 2.95679 25 3.96379 25 11.6018C25 19.2818 25.234 20.3248 27.455 22.5448C29.669 24.7598 30.727 24.9998 38.263 24.9998C43.885 24.9998 47.25 25.4628 48.551 26.4138C50.164 27.5928 50.569 29.4548 50.992 37.6388C51.47 46.8648 51.649 47.5248 54 48.7098C55.375 49.4028 59.762 49.9768 63.75 49.9848C69.654 49.9968 71.371 50.3708 73 51.9998C74.875 53.8748 75 55.3328 75 75.3088C75 92.1288 74.701 97.0268 73.581 98.5588C72.387 100.193 70.685 100.552 62.831 100.826C55.702 101.075 53.205 101.533 52.25 102.767C51.483 103.758 51 107.55 51 112.58C51 119.161 50.623 121.244 49.089 123.139C47.39 125.238 46.116 125.559 37.604 126.035C32.339 126.329 27.542 127.058 26.945 127.655C26.348 128.252 25.544 133.061 25.158 138.342C24.751 143.907 23.918 148.482 23.178 149.222C22.324 150.076 18.816 150.5 12.604 150.5C6.19397 150.5 2.79398 150.074 1.65398 149.128C0.322977 148.023 0.00296985 145.876 0.0149699 138.128C0.0239699 132.832 0.446972 127.842 0.954972 127.039C1.61797 125.991 4.60898 125.425 11.529 125.039C20.118 124.559 21.388 124.241 23.089 122.139C24.6 120.272 25 118.169 25 112.08C25 107.012 25.485 103.719 26.419 102.441C27.596 100.831 29.469 100.409 37.403 99.9648C43.109 99.6458 47.48 98.9198 48.235 98.1648C49.176 97.2238 49.5 91.4248 49.5 75.4998C49.5 60.8918 49.14 53.7398 48.367 52.9668C47.744 52.3438 42.854 51.4588 37.5 50.9998C32.146 50.5408 27.259 49.6588 26.639 49.0388C26.019 48.4188 25.237 43.6688 24.902 38.4848C24.567 33.2998 23.758 28.4128 23.103 27.6238C22.269 26.6188 19.127 26.0868 12.608 25.8448C6.64497 25.6238 2.70997 25.0068 1.65097 24.1278C0.322971 23.0238 0.00296985 20.8698 0.0149699 13.1278C0.0239699 7.83179 0.36097 3.00479 0.76497 2.39979C1.16897 1.79479 2.17497 1.04279 2.99997 0.728787C3.82497 0.414787 8.11196 0.121793 12.527 0.0787934C18.278 0.0217934 21.185 0.44179 22.777 1.55679Z" fill="white"/>
</svg>

<svg xmlns="http://www.w3.org/2000/svg" fill="none" viewBox="0 0 75 151">
  <path fill="#fff" fill-rule="evenodd" d="M22.8 1.6C24.8 3 25 4 25 11.6c0 7.7.2 8.7 2.5 11 2.2 2.2 3.2 2.4 10.8 2.4 5.6 0 9 .5 10.3 1.4 1.6 1.2 2 3 2.4 11.2.5 9.3.6 10 3 11.1 1.4.7 5.8 1.3 9.8 1.3 5.9 0 7.6.4 9.2 2 1.9 1.9 2 3.3 2 23.3 0 16.8-.3 21.7-1.4 23.3-1.2 1.6-3 2-10.8 2.2-7.1.3-9.6.7-10.5 2-.8 1-1.3 4.8-1.3 9.8 0 6.6-.4 8.6-2 10.5-1.6 2.1-2.9 2.5-11.4 3-5.3.2-10 1-10.7 1.6a34 34 0 0 0-1.7 10.6 31 31 0 0 1-2 11c-.9.8-4.4 1.2-10.6 1.2-6.4 0-9.8-.4-11-1.4-1.3-1-1.6-3.2-1.6-11a43 43 0 0 1 1-11c.6-1.1 3.6-1.7 10.5-2 8.6-.5 9.9-.9 11.6-3 1.5-1.8 1.9-4 1.9-10 0-5 .5-8.4 1.4-9.7 1.2-1.6 3-2 11-2.4 5.7-.4 10-1 10.8-1.8 1-1 1.3-6.8 1.3-22.7A97 97 0 0 0 48.4 53c-.7-.7-5.5-1.5-10.9-2a36.8 36.8 0 0 1-10.9-2c-.6-.6-1.4-5.3-1.7-10.5a36 36 0 0 0-1.8-10.9c-.8-1-4-1.5-10.5-1.8-6-.2-9.9-.8-11-1.7C.4 23.1 0 21 0 13.1 0 7.8.4 3 .8 2.4 1.2 1.8 2.2 1 3 .7a53 53 0 0 1 9.5-.6c5.8 0 8.7.3 10.3 1.5Z" clip-rule="evenodd"/>
</svg>
